X:1
T:Title
%%score { ( 1 3 4 ) | ( 2 5 6 ) }
L:1/8
M:6/8
K:Bb
V:1 treble nm="Grand Piano"
V:3 treble 
V:4 treble 
V:2 bass 
V:5 bass 
V:6 bass 
V:1
 z3 z2[Q:1/4=84] [DF]/[DF]/ | [DF][DF][DF] [Fd]>[Ec][DB] | cBG B2 G | [DF][DB][DB] BAB | %4
 c3- c2 z/ E/ | [DF][Fd]>[Fd] [Fd][Ec][DB] | cBG B2 G | FAG FB>c | [DB]3- [DB]2 [DF] | c>cc cdc | %10
 [Ec]<[DB][EG] [DF]2 [DF] | [DF][DB][DB] BAB | c3- c2 F | [Fd][Fd][Fd] [Fd]>[Ec][DB] | %14
[M:7/8] cBG B3 G |[M:27/32] z/ A/4-A/4-A/4-A/4-A/4-A/4-A/-<A/ z/ F3/4 z/4 z/4 z/4 z/ c/4-c/-<c/- | %16
[M:5/8] c3/4 z/4 z z z2 |[M:1/8] [DB] |[M:3/4] (7:8:8c3/8c3/8-c-c/8c3/4c3/8B3/2c3/4 | %19
 (7:8:7[Fd]3/4-[B,Fd]-[B,F-d-]/8[B,F-d-]3/4[B,Fd]3/8-[B,Fd]3/2[Fd]3/4 | %20
 (7:8:8[Fd]3/4[Ec]-[Ec]/8[DB]3/4B3/4A-A/8B3/4 | %21
 (7:8:7c3/4-[A,c]-[A,c-]/8[A,c-]3/4[A,c]3/8-[A,c]3/2F3/4 | %22
 (7:8:8[Fd]3/4[Fd]-[Fd]/8[Fd]3/4[Fd]-[Fd]/8[Ec]3/4[DB]3/4 | %23
[M:7/8] c3/2-c/4 z/4 G- G/4 z/4 z/ z z2 | %24
[M:15/16] (3:2:2F3/4A3/2-A-A/4 z/4 z B-<[Q:1/4=81]B-(3:2:2B3/4c3/2[Q:1/4=82][Q:1/4=79][Q:1/4=77][Q:1/4=75][Q:1/4=74][Q:1/4=72][Q:1/4=70][Q:1/4=68][Q:1/4=67][Q:1/4=65] | %25
[M:5/8] [DB]-[DB]- [DB]3 |] %26
V:2
 z3 z2 [B,,B,] | [B,,B,][B,,B,][B,,B,] [B,,F,]>[B,,F,][B,,F,] | %2
 [E,G,E][E,G,E][E,B,E] [E,G,E]2 [E,B,E] | [B,,B,][B,,F,][B,,F,] [G,B,D][G,B,D][G,B,D] | %4
 [F,A,F]3- [F,A,F]2 [F,A,] | [B,,B,][B,,B,]>[B,,B,] [B,,B,][B,,B,][B,,B,] | %6
 [E,G,E][E,G,E][E,B,E] [E,G,E]2 [E,B,E] | [F,B,D][F,CE][F,B,E] [F,A,E][F,DF]>[F,A,E] | %8
 [B,,B,]3- [B,,B,]2 [B,,B,] | [F,A,E]>[F,A,E][F,A,E] [F,A,E][F,B,F][F,A,E] | %10
 [B,,B,]<[B,,B,][B,,B,] [B,,B,]2 [B,,F,] | [B,,F,][B,,F,][B,,F,] [G,B,D][G,B,D][G,B,D] | %12
 [F,A,F]3- [F,A,F]2 [F,A,] | [B,,B,][B,,B,][B,,B,] [B,,B,]>[B,,B,][B,,B,] | %14
[M:7/8] [E,G,E][E,G,E][E,B,E] [E,G,E]3 [E,B,E] | %15
[M:27/32] z/ C/4-C/4-C/4-C/4-C/4-C/4-C/-<C/ z/ [A,E]3/4 z/4 z/4 z/4 z/ [F,A,E]/4-[F,A,E]/-<[F,A,E]/- | %16
[M:5/8] [F,A,E]3/4 z/4 z z z2 |[M:1/8] [B,,B,] | %18
[M:3/4] (7:8:8[F,A,F]3/8[F,A,F]3/8-[F,A,F]-[F,A,F]/8[F,A,F]3/4[F,A,F]3/8[F,G,F]3/2[F,A,F]3/4 | %19
 (7:8:7[B,,B,]3/4B,,-B,,/8B,,3/4B,,3/8-B,,3/2[B,,F,]3/4 | %20
 (7:8:8[B,,F,]3/4[B,,F,]-[B,,F,]/8[B,,F,]3/4[G,B,D]3/4[G,B,D]-[G,B,D]/8[G,B,D]3/4 | %21
 (7:8:7[F,A,F-]3/4[F,F]-[F,F-]/8[F,F-]3/4[F,F]3/8-[F,F]3/2[F,A,E]3/4 | %22
 (7:8:8[B,,B,]3/4[B,,B,]-[B,,B,]/8[B,,B,]3/4[B,,B,]-[B,,B,]/8[B,,B,]3/4[B,,B,]3/4 | %23
[M:7/8] [E,G,E]>G,-[G,B,-]/<B,/- [G,-B,]/<G,/- G,2- [E,-G,B,-E-]/<[E,B,E]/ | %24
[M:15/16] (3:2:2[F,A,E]3/4[F,CE]3/2-[F,C-E][B,-C]/4B,/4-B,/-[A,-B,E-]/4[A,E]/4-[F,-A,B,-D-E]<[F,B,D]-(3:2:2[F,B,D]3/4[F,A,E]3/2 | %25
[M:5/8] [B,,B,]-[B,,B,]- [B,,B,]3 |] %26
V:3
 x6 | x6 | x6 | x6 | z3 z2 F | x6 | x6 | x6 | x6 | x6 | x6 | x6 | x6 | x6 |[M:7/8] x7 | %15
[M:27/32] z/4 z/4 z/4 z/4 z/4 z/4 z/4 z/4 z/ G/4-G/4-G/-<G/B/4-B/4-B/4-B/4-B/-<B/ z/4 z/ | %16
[M:5/8] x5 |[M:1/8] x |[M:3/4] x6 | x6 | x6 | x6 | x6 | %23
[M:7/8] z z/ B/-B/4 z/4 z/ B- B2- B/4 z/4 z/ |[M:15/16] z3/2 z G/-G3/4 z/4 z/ z3 |[M:5/8] x5 |] %26
V:4
 x6 | x6 | x6 | x6 | x6 | x6 | x6 | x6 | x6 | x6 | x6 | x6 | x6 | x6 |[M:7/8] x7 | %15
[M:27/32] F/ z/4 z/4 z/4 z/4 z/4 z/4 z/4 z/4 z/4 z/4 z/4 z/4 z/4 z/4 z/4 z/4 z/4 z/4 z/4 z/4 z/4 z/4 z/4 z/ | %16
[M:5/8] [DB]-[DB]- [DB]3 |[M:1/8] x |[M:3/4] x6 | x6 | x6 | x6 | x6 |[M:7/8] z z z z z2 G | %24
[M:15/16] z3/2 z3/2 z/ F z3 |[M:5/8] x5 |] %26
V:5
 x6 | x6 | x6 | x6 | x6 | x6 | x6 | x6 | x6 | x6 | x6 | x6 | x6 | x6 |[M:7/8] x7 | %15
[M:27/32] z/4 z/4 z/4 z/4 z/4 z/4 z/4 z/4 z/ [F,E]/-<[F,E]/ z/ [B,D]/4-[B,D]/4-[B,D]/4-[B,D]/4-[B,D]/-<[B,D]/ z/4 z/ | %16
[M:5/8] x5 |[M:1/8] x |[M:3/4] x6 | x6 | x6 | x6 | x6 |[M:7/8] z z/ [E,E]/[E,E] [E,E]3 z | %24
[M:15/16] z3/2 z [F,E]/-[F,E]/.F, z3 |[M:5/8] x5 |] %26
V:6
 x6 | x6 | x6 | x6 | x6 | x6 | x6 | x6 | x6 | x6 | x6 | x6 | x6 | x6 |[M:7/8] x7 | %15
[M:27/32] [F,A,E]/[F,E]/4-[F,E]/4-[F,E]/4-[F,E]/4-[F,E]/-<[F,E]/B,/-<B,/-[F,B,]/F,/4-F,/4-F,/-<F,/ z/4 z/4 z/4 z/ | %16
[M:5/8] [B,,B,]-[B,,B,]- [B,,B,]3 |[M:1/8] x |[M:3/4] x6 | x6 | x6 | x6 | x6 |[M:7/8] x7 | %24
[M:15/16] x15/2 |[M:5/8] x5 |] %26

